.files/icons/devices/Homepod.svg

<svg fill="none" height="48" viewBox="0 0 48 48" width="48" xmlns="http://www.w3.org/2000/svg"><g clip-rule="evenodd" fill="#000" fill-rule="evenodd"><path d="m12 8.00004c0 3.31366 5.3726 5.99996 12 5.99996s12-2.6863 12-5.99996c0-.63736-.1988-1.25151-.567-1.8278 2.6218.64248 4.567 3.00797 4.567 5.82776v26c0 3.3137-2.6863 6-6 6h-20c-3.3137 0-6-2.6863-6-6v-26c0-2.81979 1.94522-5.18528 4.567-5.82776-.3682.57629-.567 1.19044-.567 1.8278z" opacity=".3"/><path d="m30.6964 7.33507c-1.6492-.82461-4.0629-1.33507-6.6964-1.33507s-5.0472.51046-6.6964 1.33507c-.4513.22562-.8052.45579-1.0532.66493.248.20914.6019.43931 1.0532.66493 1.6492.82461 4.0629 1.33507 6.6964 1.33507s5.0472-.51046 6.6964-1.33507c.4512-.22562.8052-.45579 1.0532-.66493-.248-.20914-.602-.43931-1.0532-.66493z"/></g></svg>

<svg width="48" height="48" viewBox="0 0 48 48" fill="none" xmlns="http://www.w3.org/2000/svg">
<path opacity="0.3" fill-rule="evenodd" clip-rule="evenodd" d="M12 8.00004C12 11.3137 17.3726 14 24 14C30.6274 14 36 11.3137 36 8.00004C36 7.36268 35.8012 6.74853 35.433 6.17224C38.0548 6.81472 40 9.18021 40 12V38C40 41.3137 37.3137 44 34 44H14C10.6863 44 8 41.3137 8 38V12C8 9.18021 9.94522 6.81472 12.567 6.17224C12.1988 6.74853 12 7.36268 12 8.00004Z" fill="black"/>
<path fill-rule="evenodd" clip-rule="evenodd" d="M30.6964 7.33507C29.0472 6.51046 26.6335 6 24 6C21.3665 6 18.9528 6.51046 17.3036 7.33507C16.8523 7.56069 16.4984 7.79086 16.2504 8C16.4984 8.20914 16.8523 8.43931 17.3036 8.66493C18.9528 9.48954 21.3665 10 24 10C26.6335 10 29.0472 9.48954 30.6964 8.66493C31.1476 8.43931 31.5016 8.20914 31.7496 8C31.5016 7.79086 31.1476 7.56069 30.6964 7.33507Z" fill="black"/>
</svg>
